symbols/web/indeterminate_check_box/materialsymbolsrounded/indeterminate_check_box_wght200_20px.svg

<svg xmlns="http://www.w3.org/2000/svg" height="20" width="20"><path d="M6.875 10.458h6.25q.187 0 .323-.135.135-.135.135-.323t-.135-.323q-.136-.135-.323-.135h-6.25q-.187 0-.323.135-.135.135-.135.323t.135.323q.136.135.323.135Zm-2.104 6.209q-.625 0-1.031-.407-.407-.406-.407-1.031V4.771q0-.625.407-1.031.406-.407 1.031-.407h10.458q.625 0 1.031.407.407.406.407 1.031v10.458q0 .625-.407 1.031-.406.407-1.031.407Zm0-.917h10.458q.209 0 .365-.156t.156-.365V4.771q0-.209-.156-.365t-.365-.156H4.771q-.209 0-.365.156t-.156.365v10.458q0 .209.156.365t.365.156Zm-.521 0V4.25 15.75Z"/></svg>

<svg xmlns="http://www.w3.org/2000/svg" height="20" width="20"><path d="M6.875 10.458H13.125Q13.312 10.458 13.448 10.323Q13.583 10.188 13.583 10Q13.583 9.812 13.448 9.677Q13.312 9.542 13.125 9.542H6.875Q6.688 9.542 6.552 9.677Q6.417 9.812 6.417 10Q6.417 10.188 6.552 10.323Q6.688 10.458 6.875 10.458ZM4.771 16.667Q4.146 16.667 3.74 16.26Q3.333 15.854 3.333 15.229V4.771Q3.333 4.146 3.74 3.74Q4.146 3.333 4.771 3.333H15.229Q15.854 3.333 16.26 3.74Q16.667 4.146 16.667 4.771V15.229Q16.667 15.854 16.26 16.26Q15.854 16.667 15.229 16.667ZM4.771 15.75H15.229Q15.438 15.75 15.594 15.594Q15.75 15.438 15.75 15.229V4.771Q15.75 4.562 15.594 4.406Q15.438 4.25 15.229 4.25H4.771Q4.562 4.25 4.406 4.406Q4.25 4.562 4.25 4.771V15.229Q4.25 15.438 4.406 15.594Q4.562 15.75 4.771 15.75ZM4.25 15.75Q4.25 15.75 4.25 15.594Q4.25 15.438 4.25 15.229V4.771Q4.25 4.562 4.25 4.406Q4.25 4.25 4.25 4.25Q4.25 4.25 4.25 4.406Q4.25 4.562 4.25 4.771V15.229Q4.25 15.438 4.25 15.594Q4.25 15.75 4.25 15.75Z"/></svg>
